images/3233409.svg

<?xml version="1.0" encoding="UTF-8"?>
<svg xmlns="http://www.w3.org/2000/svg" xmlns:xlink="http://www.w3.org/1999/xlink" width="300pt" height="300pt" viewBox="0 0 300 300" version="1.1">
<defs>
<g>
<symbol overflow="visible" id="glyph0-0">
<path style="stroke:none;" d="M 0.453125 1.59375 L 0.453125 -6.34375 L 4.953125 -6.34375 L 4.953125 1.59375 Z M 0.953125 1.09375 L 4.453125 1.09375 L 4.453125 -5.84375 L 0.953125 -5.84375 Z M 0.953125 1.09375 "/>
</symbol>
<symbol overflow="visible" id="glyph0-1">
<path style="stroke:none;" d="M 0.890625 -6.5625 L 2.078125 -6.5625 L 4.984375 -1.078125 L 4.984375 -6.5625 L 5.84375 -6.5625 L 5.84375 0 L 4.65625 0 L 1.75 -5.484375 L 1.75 0 L 0.890625 0 Z M 0.890625 -6.5625 "/>
</symbol>
<symbol overflow="visible" id="glyph0-2">
<path style="stroke:none;" d="M 3.546875 -5.953125 C 2.898438 -5.953125 2.382812 -5.710938 2 -5.234375 C 1.625 -4.753906 1.4375 -4.101562 1.4375 -3.28125 C 1.4375 -2.445312 1.625 -1.789062 2 -1.3125 C 2.382812 -0.832031 2.898438 -0.59375 3.546875 -0.59375 C 4.191406 -0.59375 4.703125 -0.832031 5.078125 -1.3125 C 5.453125 -1.789062 5.640625 -2.445312 5.640625 -3.28125 C 5.640625 -4.101562 5.453125 -4.753906 5.078125 -5.234375 C 4.703125 -5.710938 4.191406 -5.953125 3.546875 -5.953125 Z M 3.546875 -6.6875 C 4.460938 -6.6875 5.195312 -6.375 5.75 -5.75 C 6.300781 -5.132812 6.578125 -4.3125 6.578125 -3.28125 C 6.578125 -2.238281 6.300781 -1.410156 5.75 -0.796875 C 5.195312 -0.179688 4.460938 0.125 3.546875 0.125 C 2.617188 0.125 1.878906 -0.179688 1.328125 -0.796875 C 0.773438 -1.410156 0.5 -2.238281 0.5 -3.28125 C 0.5 -4.3125 0.773438 -5.132812 1.328125 -5.75 C 1.878906 -6.375 2.617188 -6.6875 3.546875 -6.6875 Z M 3.546875 -6.6875 "/>
</symbol>
</g>
</defs>
<g id="surface45657">
<rect x="0" y="0" width="300" height="300" style="fill:rgb(100%,100%,100%);fill-opacity:1;stroke:none;"/>
<path style="fill:none;stroke-width:1.2;stroke-linecap:butt;stroke-linejoin:miter;stroke:rgb(0%,0%,0%);stroke-opacity:1;stroke-miterlimit:10;" d="M 138.851562 164.996094 L 116.550781 168.746094 "/>
<path style="fill:none;stroke-width:1.2;stroke-linecap:butt;stroke-linejoin:miter;stroke:rgb(0%,0%,0%);stroke-opacity:1;stroke-miterlimit:10;" d="M 146.753906 143.808594 L 138.851562 164.996094 "/>
<path style="fill:none;stroke-width:1.2;stroke-linecap:butt;stroke-linejoin:miter;stroke:rgb(0%,0%,0%);stroke-opacity:1;stroke-miterlimit:10;" d="M 116.550781 168.746094 L 109.351562 160.027344 "/>
<path style="fill:none;stroke-width:1.2;stroke-linecap:butt;stroke-linejoin:miter;stroke:rgb(0%,0%,100%);stroke-opacity:1;stroke-miterlimit:10;" d="M 109.351562 160.027344 L 102.152344 151.308594 "/>
<path style="fill:none;stroke-width:1.2;stroke-linecap:butt;stroke-linejoin:miter;stroke:rgb(0%,0%,100%);stroke-opacity:1;stroke-miterlimit:10;" d="M 102.152344 151.308594 L 106.105469 140.714844 "/>
<path style="fill:none;stroke-width:1.2;stroke-linecap:butt;stroke-linejoin:miter;stroke:rgb(0%,0%,0%);stroke-opacity:1;stroke-miterlimit:10;" d="M 106.105469 140.714844 L 110.054688 130.121094 "/>
<path style="fill:none;stroke-width:1.2;stroke-linecap:butt;stroke-linejoin:miter;stroke:rgb(0%,0%,100%);stroke-opacity:1;stroke-miterlimit:10;" d="M 102.152344 151.308594 L 91 153.183594 "/>
<path style="fill:none;stroke-width:1.2;stroke-linecap:butt;stroke-linejoin:miter;stroke:rgb(0%,0%,0%);stroke-opacity:1;stroke-miterlimit:10;" d="M 91 153.183594 L 79.851562 155.054688 "/>
<path style=" stroke:none;fill-rule:nonzero;fill:rgb(100%,100%,100%);fill-opacity:1;" d="M 99.152344 145.808594 L 106.152344 145.808594 L 106.152344 156.808594 L 99.152344 156.808594 Z M 99.152344 145.808594 "/>
<g style="fill:rgb(0%,0%,100%);fill-opacity:1;">
  <use xlink:href="#glyph0-1" x="99.152344" y="154.47168"/>
</g>
<path style="fill:none;stroke-width:1.2;stroke-linecap:butt;stroke-linejoin:miter;stroke:rgb(0%,0%,0%);stroke-opacity:1;stroke-miterlimit:10;" d="M 110.054688 130.121094 L 132.355469 126.371094 "/>
<path style="fill:none;stroke-width:1.2;stroke-linecap:butt;stroke-linejoin:miter;stroke:rgb(0%,0%,0%);stroke-opacity:1;stroke-miterlimit:10;" d="M 132.355469 126.371094 L 146.753906 143.808594 "/>
<path style="fill:none;stroke-width:1.2;stroke-linecap:butt;stroke-linejoin:miter;stroke:rgb(0%,0%,0%);stroke-opacity:1;stroke-miterlimit:10;" d="M 146.753906 143.808594 L 161.148438 161.246094 "/>
<path style="fill:none;stroke-width:1.2;stroke-linecap:butt;stroke-linejoin:miter;stroke:rgb(0%,0%,0%);stroke-opacity:1;stroke-miterlimit:10;" d="M 154.65625 122.621094 L 146.753906 143.808594 "/>
<path style="fill:none;stroke-width:1.2;stroke-linecap:butt;stroke-linejoin:miter;stroke:rgb(0%,0%,0%);stroke-opacity:1;stroke-miterlimit:10;" d="M 161.148438 161.246094 L 183.449219 157.5 "/>
<path style="fill:none;stroke-width:1.2;stroke-linecap:butt;stroke-linejoin:miter;stroke:rgb(0%,0%,0%);stroke-opacity:1;stroke-miterlimit:10;" d="M 183.449219 157.5 L 187.402344 146.90625 "/>
<path style="fill:none;stroke-width:1.2;stroke-linecap:butt;stroke-linejoin:miter;stroke:rgb(0%,0%,100%);stroke-opacity:1;stroke-miterlimit:10;" d="M 187.402344 146.90625 L 191.355469 136.3125 "/>
<path style="fill:none;stroke-width:1.2;stroke-linecap:butt;stroke-linejoin:miter;stroke:rgb(0%,0%,100%);stroke-opacity:1;stroke-miterlimit:10;" d="M 191.355469 136.3125 L 184.15625 127.589844 "/>
<path style="fill:none;stroke-width:1.2;stroke-linecap:butt;stroke-linejoin:miter;stroke:rgb(0%,0%,0%);stroke-opacity:1;stroke-miterlimit:10;" d="M 184.15625 127.589844 L 176.957031 118.871094 "/>
<path style="fill:none;stroke-width:1.2;stroke-linecap:butt;stroke-linejoin:miter;stroke:rgb(0%,0%,100%);stroke-opacity:1;stroke-miterlimit:10;" d="M 191.355469 136.3125 L 202.503906 134.4375 "/>
<path style="fill:none;stroke-width:1.2;stroke-linecap:butt;stroke-linejoin:miter;stroke:rgb(0%,0%,0%);stroke-opacity:1;stroke-miterlimit:10;" d="M 202.503906 134.4375 L 213.65625 132.5625 "/>
<path style=" stroke:none;fill-rule:nonzero;fill:rgb(100%,100%,100%);fill-opacity:1;" d="M 188.355469 130.8125 L 195.355469 130.8125 L 195.355469 141.8125 L 188.355469 141.8125 Z M 188.355469 130.8125 "/>
<g style="fill:rgb(0%,0%,100%);fill-opacity:1;">
  <use xlink:href="#glyph0-1" x="188.355469" y="139.475586"/>
</g>
<path style="fill:none;stroke-width:1.2;stroke-linecap:butt;stroke-linejoin:miter;stroke:rgb(0%,0%,0%);stroke-opacity:1;stroke-miterlimit:10;" d="M 176.957031 118.871094 L 154.65625 122.621094 "/>
<path style="fill:none;stroke-width:1.2;stroke-linecap:butt;stroke-linejoin:miter;stroke:rgb(0%,0%,0%);stroke-opacity:1;stroke-miterlimit:10;" d="M 216.148438 133.492188 L 220.097656 122.898438 "/>
<path style="fill:none;stroke-width:1.2;stroke-linecap:butt;stroke-linejoin:miter;stroke:rgb(100%,0%,0%);stroke-opacity:1;stroke-miterlimit:10;" d="M 220.097656 122.898438 L 224.050781 112.304688 "/>
<path style="fill:none;stroke-width:1.2;stroke-linecap:butt;stroke-linejoin:miter;stroke:rgb(0%,0%,0%);stroke-opacity:1;stroke-miterlimit:10;" d="M 211.164062 131.632812 L 215.113281 121.039062 "/>
<path style="fill:none;stroke-width:1.2;stroke-linecap:butt;stroke-linejoin:miter;stroke:rgb(100%,0%,0%);stroke-opacity:1;stroke-miterlimit:10;" d="M 215.113281 121.039062 L 219.066406 110.445312 "/>
<path style="fill:none;stroke-width:1.2;stroke-linecap:butt;stroke-linejoin:miter;stroke:rgb(0%,0%,0%);stroke-opacity:1;stroke-miterlimit:10;" d="M 213.65625 132.5625 L 228.050781 150 "/>
<path style=" stroke:none;fill-rule:nonzero;fill:rgb(100%,100%,100%);fill-opacity:1;" d="M 217.558594 105.875 L 225.558594 105.875 L 225.558594 116.875 L 217.558594 116.875 Z M 217.558594 105.875 "/>
<g style="fill:rgb(100%,0%,0%);fill-opacity:1;">
  <use xlink:href="#glyph0-2" x="217.558594" y="114.538086"/>
</g>
<path style="fill:none;stroke-width:1.2;stroke-linecap:butt;stroke-linejoin:miter;stroke:rgb(0%,0%,0%);stroke-opacity:1;stroke-miterlimit:10;" d="M 228.050781 150 L 224.101562 160.59375 "/>
<path style="fill:none;stroke-width:1.2;stroke-linecap:butt;stroke-linejoin:miter;stroke:rgb(0%,0%,100%);stroke-opacity:1;stroke-miterlimit:10;" d="M 224.101562 160.59375 L 220.148438 171.1875 "/>
<path style="fill:none;stroke-width:1.2;stroke-linecap:butt;stroke-linejoin:miter;stroke:rgb(0%,0%,0%);stroke-opacity:1;stroke-miterlimit:10;" d="M 232.246094 153.976562 L 229.085938 162.453125 "/>
<path style="fill:none;stroke-width:1.2;stroke-linecap:butt;stroke-linejoin:miter;stroke:rgb(0%,0%,100%);stroke-opacity:1;stroke-miterlimit:10;" d="M 229.085938 162.453125 L 225.925781 170.929688 "/>
<path style="fill:none;stroke-width:1.2;stroke-linecap:butt;stroke-linejoin:miter;stroke:rgb(0%,0%,0%);stroke-opacity:1;stroke-miterlimit:10;" d="M 250.351562 146.25 L 228.050781 150 "/>
<path style="fill:none;stroke-width:1.2;stroke-linecap:butt;stroke-linejoin:miter;stroke:rgb(0%,0%,100%);stroke-opacity:1;stroke-miterlimit:10;" d="M 220.148438 171.1875 L 227.347656 179.90625 "/>
<path style="fill:none;stroke-width:1.2;stroke-linecap:butt;stroke-linejoin:miter;stroke:rgb(0%,0%,0%);stroke-opacity:1;stroke-miterlimit:10;" d="M 227.347656 179.90625 L 234.546875 188.625 "/>
<path style=" stroke:none;fill-rule:nonzero;fill:rgb(100%,100%,100%);fill-opacity:1;" d="M 217.148438 165.6875 L 224.148438 165.6875 L 224.148438 176.6875 L 217.148438 176.6875 Z M 217.148438 165.6875 "/>
<g style="fill:rgb(0%,0%,100%);fill-opacity:1;">
  <use xlink:href="#glyph0-1" x="217.148438" y="174.350586"/>
</g>
<path style="fill:none;stroke-width:1.2;stroke-linecap:butt;stroke-linejoin:miter;stroke:rgb(0%,0%,0%);stroke-opacity:1;stroke-miterlimit:10;" d="M 234.546875 188.625 L 256.847656 184.875 "/>
<path style="fill:none;stroke-width:1.2;stroke-linecap:butt;stroke-linejoin:miter;stroke:rgb(0%,0%,0%);stroke-opacity:1;stroke-miterlimit:10;" d="M 235.894531 183.003906 L 253.734375 180.003906 "/>
<path style="fill:none;stroke-width:1.2;stroke-linecap:butt;stroke-linejoin:miter;stroke:rgb(0%,0%,0%);stroke-opacity:1;stroke-miterlimit:10;" d="M 256.847656 184.875 L 260.796875 174.28125 "/>
<path style="fill:none;stroke-width:1.2;stroke-linecap:butt;stroke-linejoin:miter;stroke:rgb(0%,0%,100%);stroke-opacity:1;stroke-miterlimit:10;" d="M 260.796875 174.28125 L 264.75 163.6875 "/>
<path style="fill:none;stroke-width:1.2;stroke-linecap:butt;stroke-linejoin:miter;stroke:rgb(0%,0%,100%);stroke-opacity:1;stroke-miterlimit:10;" d="M 264.75 163.6875 L 257.550781 154.96875 "/>
<path style="fill:none;stroke-width:1.2;stroke-linecap:butt;stroke-linejoin:miter;stroke:rgb(0%,0%,0%);stroke-opacity:1;stroke-miterlimit:10;" d="M 257.550781 154.96875 L 250.351562 146.25 "/>
<path style="fill:none;stroke-width:1.2;stroke-linecap:butt;stroke-linejoin:miter;stroke:rgb(0%,0%,100%);stroke-opacity:1;stroke-miterlimit:10;" d="M 259.207031 165.332031 L 253.449219 158.359375 "/>
<path style="fill:none;stroke-width:1.2;stroke-linecap:butt;stroke-linejoin:miter;stroke:rgb(0%,0%,0%);stroke-opacity:1;stroke-miterlimit:10;" d="M 253.449219 158.359375 L 247.6875 151.382812 "/>
<path style=" stroke:none;fill-rule:nonzero;fill:rgb(100%,100%,100%);fill-opacity:1;" d="M 261.75 158.1875 L 268.75 158.1875 L 268.75 169.1875 L 261.75 169.1875 Z M 261.75 158.1875 "/>
<g style="fill:rgb(0%,0%,100%);fill-opacity:1;">
  <use xlink:href="#glyph0-1" x="261.75" y="166.850586"/>
</g>
<path style="fill:none;stroke-width:1.2;stroke-linecap:butt;stroke-linejoin:miter;stroke:rgb(0%,0%,0%);stroke-opacity:1;stroke-miterlimit:10;" d="M 79.851562 155.054688 L 65.453125 137.617188 "/>
<path style="fill:none;stroke-width:1.2;stroke-linecap:butt;stroke-linejoin:miter;stroke:rgb(0%,0%,0%);stroke-opacity:1;stroke-miterlimit:10;" d="M 74.308594 156.699219 L 62.789062 142.75 "/>
<path style="fill:none;stroke-width:1.2;stroke-linecap:butt;stroke-linejoin:miter;stroke:rgb(0%,0%,100%);stroke-opacity:1;stroke-miterlimit:10;" d="M 71.949219 176.242188 L 75.898438 165.648438 "/>
<path style="fill:none;stroke-width:1.2;stroke-linecap:butt;stroke-linejoin:miter;stroke:rgb(0%,0%,0%);stroke-opacity:1;stroke-miterlimit:10;" d="M 75.898438 165.648438 L 79.851562 155.054688 "/>
<path style="fill:none;stroke-width:1.2;stroke-linecap:butt;stroke-linejoin:miter;stroke:rgb(0%,0%,0%);stroke-opacity:1;stroke-miterlimit:10;" d="M 65.453125 137.617188 L 43.152344 141.367188 "/>
<path style="fill:none;stroke-width:1.2;stroke-linecap:butt;stroke-linejoin:miter;stroke:rgb(0%,0%,0%);stroke-opacity:1;stroke-miterlimit:10;" d="M 43.152344 141.367188 L 35.25 162.554688 "/>
<path style="fill:none;stroke-width:1.2;stroke-linecap:butt;stroke-linejoin:miter;stroke:rgb(0%,0%,0%);stroke-opacity:1;stroke-miterlimit:10;" d="M 47.347656 145.34375 L 41.027344 162.296875 "/>
<path style="fill:none;stroke-width:1.2;stroke-linecap:butt;stroke-linejoin:miter;stroke:rgb(0%,0%,0%);stroke-opacity:1;stroke-miterlimit:10;" d="M 35.25 162.554688 L 49.648438 179.992188 "/>
<path style="fill:none;stroke-width:1.2;stroke-linecap:butt;stroke-linejoin:miter;stroke:rgb(0%,0%,0%);stroke-opacity:1;stroke-miterlimit:10;" d="M 49.648438 179.992188 L 60.796875 178.117188 "/>
<path style="fill:none;stroke-width:1.2;stroke-linecap:butt;stroke-linejoin:miter;stroke:rgb(0%,0%,100%);stroke-opacity:1;stroke-miterlimit:10;" d="M 60.796875 178.117188 L 71.949219 176.242188 "/>
<path style="fill:none;stroke-width:1.2;stroke-linecap:butt;stroke-linejoin:miter;stroke:rgb(0%,0%,0%);stroke-opacity:1;stroke-miterlimit:10;" d="M 50.996094 174.371094 L 59.914062 172.871094 "/>
<path style="fill:none;stroke-width:1.2;stroke-linecap:butt;stroke-linejoin:miter;stroke:rgb(0%,0%,100%);stroke-opacity:1;stroke-miterlimit:10;" d="M 59.914062 172.871094 L 68.835938 171.371094 "/>
<path style=" stroke:none;fill-rule:nonzero;fill:rgb(100%,100%,100%);fill-opacity:1;" d="M 68.949219 170.742188 L 75.949219 170.742188 L 75.949219 181.742188 L 68.949219 181.742188 Z M 68.949219 170.742188 "/>
<g style="fill:rgb(0%,0%,100%);fill-opacity:1;">
  <use xlink:href="#glyph0-1" x="68.949219" y="179.405273"/>
</g>
</g>
</svg>

<svg xmlns="http://www.w3.org/2000/svg" xmlns:xlink="http://www.w3.org/1999/xlink" width="300pt" height="300pt" viewBox="0 0 300 300"><defs><symbol overflow="visible"><path d="M.453 1.594v-7.938h4.5v7.938zm.5-.5h3.5v-6.938h-3.5zm0 0"/></symbol><symbol overflow="visible" id="a"><path d="M.89-6.563H2.08l2.906 5.485v-5.484h.86V0H4.656L1.75-5.484V0H.89zm0 0"/></symbol><symbol overflow="visible" id="b"><path d="M3.547-5.953c-.65 0-1.164.242-1.547.72-.375.48-.563 1.13-.563 1.952 0 .835.188 1.49.563 1.967.383.48.898.72 1.547.72.644 0 1.156-.24 1.53-.72.376-.476.564-1.132.564-1.968 0-.822-.187-1.474-.562-1.954-.375-.477-.887-.72-1.53-.72zm0-.734c.914 0 1.648.312 2.203.937.55.617.828 1.438.828 2.47 0 1.042-.277 1.87-.828 2.483-.555.617-1.29.922-2.203.922-.93 0-1.668-.305-2.22-.922C.774-1.41.5-2.237.5-3.28c0-1.033.273-1.853.828-2.47.55-.625 1.29-.938 2.22-.938zm0 0"/></symbol></defs><g><path fill="#fff" d="M0 0h300v300H0z"/><path d="M138.852 164.996l-22.3 3.75M146.754 143.81l-7.902 21.186M116.55 168.746l-7.198-8.72" stroke-width="1.2" stroke="#000" stroke-miterlimit="10" fill="none"/><path d="M109.352 160.027l-7.2-8.718M102.152 151.31l3.953-10.595" stroke-width="1.2" stroke="#00f" stroke-miterlimit="10" fill="none"/><path d="M106.105 140.715l3.95-10.594" stroke-width="1.2" stroke="#000" stroke-miterlimit="10" fill="none"/><path d="M102.152 151.31L91 153.183" stroke-width="1.2" stroke="#00f" stroke-miterlimit="10" fill="none"/><path d="M91 153.184l-11.148 1.87" stroke-width="1.2" stroke="#000" stroke-miterlimit="10" fill="none"/><path d="M99.152 145.81h7v11h-7zm0 0" fill="#fff"/><use xlink:href="#a" x="99.152" y="154.472" fill="#00f"/><path d="M110.055 130.12l22.3-3.75M132.355 126.37l14.4 17.44M146.754 143.81l14.394 17.436M154.656 122.62l-7.902 21.19M161.148 161.246l22.3-3.746M183.45 157.5l3.952-10.594" stroke-width="1.2" stroke="#000" stroke-miterlimit="10" fill="none"/><path d="M187.402 146.906l3.953-10.594M191.355 136.313l-7.2-8.723" stroke-width="1.2" stroke="#00f" stroke-miterlimit="10" fill="none"/><path d="M184.156 127.59l-7.2-8.72" stroke-width="1.2" stroke="#000" stroke-miterlimit="10" fill="none"/><path d="M191.355 136.313l11.15-1.875" stroke-width="1.2" stroke="#00f" stroke-miterlimit="10" fill="none"/><path d="M202.504 134.438l11.152-1.875" stroke-width="1.2" stroke="#000" stroke-miterlimit="10" fill="none"/><path d="M188.355 130.813h7v11h-7zm0 0" fill="#fff"/><use xlink:href="#a" x="188.355" y="139.476" fill="#00f"/><path d="M176.957 118.87l-22.3 3.75M216.148 133.492l3.95-10.594" stroke-width="1.2" stroke="#000" stroke-miterlimit="10" fill="none"/><path d="M220.098 122.898l3.953-10.593" stroke-width="1.2" stroke="#f00" stroke-miterlimit="10" fill="none"/><path d="M211.164 131.633l3.95-10.594" stroke-width="1.2" stroke="#000" stroke-miterlimit="10" fill="none"/><path d="M215.113 121.04l3.953-10.595" stroke-width="1.2" stroke="#f00" stroke-miterlimit="10" fill="none"/><path d="M213.656 132.563L228.05 150" stroke-width="1.2" stroke="#000" stroke-miterlimit="10" fill="none"/><path d="M217.56 105.875h8v11h-8zm0 0" fill="#fff"/><use xlink:href="#b" x="217.559" y="114.538" fill="#f00"/><path d="M228.05 150l-3.948 10.594" stroke-width="1.2" stroke="#000" stroke-miterlimit="10" fill="none"/><path d="M224.102 160.594l-3.954 10.594" stroke-width="1.2" stroke="#00f" stroke-miterlimit="10" fill="none"/><path d="M232.246 153.977l-3.16 8.476" stroke-width="1.2" stroke="#000" stroke-miterlimit="10" fill="none"/><path d="M229.086 162.453l-3.16 8.477" stroke-width="1.2" stroke="#00f" stroke-miterlimit="10" fill="none"/><path d="M250.352 146.25l-22.3 3.75" stroke-width="1.2" stroke="#000" stroke-miterlimit="10" fill="none"/><path d="M220.148 171.188l7.2 8.718" stroke-width="1.2" stroke="#00f" stroke-miterlimit="10" fill="none"/><path d="M227.348 179.906l7.2 8.72" stroke-width="1.2" stroke="#000" stroke-miterlimit="10" fill="none"/><path d="M217.148 165.688h7v11h-7zm0 0" fill="#fff"/><use xlink:href="#a" x="217.148" y="174.351" fill="#00f"/><path d="M234.547 188.625l22.3-3.75M235.895 183.004l17.84-3M256.848 184.875l3.95-10.594" stroke-width="1.2" stroke="#000" stroke-miterlimit="10" fill="none"/><path d="M260.797 174.28l3.953-10.593M264.75 163.688l-7.2-8.72" stroke-width="1.2" stroke="#00f" stroke-miterlimit="10" fill="none"/><path d="M257.55 154.97l-7.198-8.72" stroke-width="1.2" stroke="#000" stroke-miterlimit="10" fill="none"/><path d="M259.207 165.332l-5.758-6.973" stroke-width="1.2" stroke="#00f" stroke-miterlimit="10" fill="none"/><path d="M253.45 158.36l-5.762-6.977" stroke-width="1.2" stroke="#000" stroke-miterlimit="10" fill="none"/><path d="M261.75 158.188h7v11h-7zm0 0" fill="#fff"/><use xlink:href="#a" x="261.75" y="166.851" fill="#00f"/><path d="M79.852 155.055l-14.4-17.438M74.31 156.7l-11.52-13.95" stroke-width="1.2" stroke="#000" stroke-miterlimit="10" fill="none"/><path d="M71.95 176.242l3.948-10.594" stroke-width="1.2" stroke="#00f" stroke-miterlimit="10" fill="none"/><path d="M75.898 165.648l3.954-10.593M65.453 137.617l-22.3 3.75M43.152 141.367l-7.902 21.188M47.348 145.344l-6.32 16.953M35.25 162.555l14.398 17.437M49.648 179.992l11.15-1.875" stroke-width="1.2" stroke="#000" stroke-miterlimit="10" fill="none"/><path d="M60.797 178.117l11.152-1.875" stroke-width="1.2" stroke="#00f" stroke-miterlimit="10" fill="none"/><path d="M50.996 174.37l8.918-1.5" stroke-width="1.2" stroke="#000" stroke-miterlimit="10" fill="none"/><path d="M59.914 172.87l8.922-1.5" stroke-width="1.2" stroke="#00f" stroke-miterlimit="10" fill="none"/><path d="M68.95 170.742h7v11h-7zm0 0" fill="#fff"/><use xlink:href="#a" x="68.949" y="179.405" fill="#00f"/></g></svg>
